assets/icon/bathroom.svg

<?xml version="1.0" encoding="UTF-8"?>
<svg width="85px" height="76px" viewBox="0 0 85 76" version="1.1" xmlns="http://www.w3.org/2000/svg" xmlns:xlink="http://www.w3.org/1999/xlink">
    <!-- Generator: Sketch 44 (41411) - http://www.bohemiancoding.com/sketch -->
    <title>Page 1</title>
    <desc>Created with Sketch.</desc>
    <defs></defs>
    <g id="Inspection" stroke="none" stroke-width="1" fill="none" fill-rule="evenodd">
        <g id="NewInspectionRoomSelection" transform="translate(-1129.000000, -46.000000)">
            <g id="Page-1" transform="translate(1129.000000, 46.000000)">
                <polygon id="Path-7" fill="#D5D5E6" points="10.6015625 49.1611328 21.5214844 66.8242188 65.1318359 66.3574219 74.4960937 48.1650391 81.3554688 47.8291016 82.7021484 44.140625 79.4824219 41.1962891 5.55957031 41.3505859 2.734375 44.6113281 5.19140625 47.9951172"></polygon>
                <path d="M64.641,21.762 C65.12147,21.762 65.51991,21.36356 65.51991,20.88309 L65.51991,19.12139 C65.51991,18.64092 65.12147,18.24248 64.641,18.24248 C64.16053,18.24248 63.76209,18.64092 63.76209,19.12139 L63.76209,20.88309 C63.76209,21.35965 64.16053,21.762 64.641,21.762 Z" id="Fill-1" fill="#AAAAAA"></path>
                <path d="M63.762,26.238 C63.762,26.71847 64.16044,27.11691 64.64091,27.11691 C65.12138,27.11691 65.51982,26.71847 65.51982,26.238 L65.51982,24.4763 C65.51982,23.99583 65.12138,23.59739 64.64091,23.59739 C64.16044,23.59739 63.762,23.99583 63.762,24.4763 L63.762,26.238 Z" id="Fill-2" fill="#AAAAAA"></path>
                <path d="M63.762,31.68 C63.762,32.16047 64.16044,32.55891 64.64091,32.55891 C65.12138,32.55891 65.51982,32.16047 65.51982,31.68 L65.51982,29.9183 C65.51982,29.43783 65.12138,29.03939 64.64091,29.03939 C64.16044,29.03939 63.762,29.43783 63.762,29.9183 L63.762,31.68 Z" id="Fill-3" fill="#AAAAAA"></path>
                <path d="M63.762,37.121 C63.762,37.60147 64.16044,37.99991 64.64091,37.99991 C65.12138,37.99991 65.51982,37.60147 65.51982,37.121 L65.51982,35.3593 C65.51982,34.87883 65.12138,34.48039 64.64091,34.48039 C64.16044,34.48039 63.762,34.87883 63.762,35.3593 L63.762,37.121 Z" id="Fill-4" fill="#AAAAAA"></path>
                <path d="M68.16,24.48 C68.64047,24.48 69.03891,24.08156 69.03891,23.60109 L69.03891,21.83939 C69.03891,21.35892 68.64047,20.96048 68.16,20.96048 C67.67953,20.96048 67.28109,21.35892 67.28109,21.83939 L67.28109,23.60109 C67.28109,24.07765 67.67953,24.48 68.16,24.48 Z" id="Fill-5" fill="#AAAAAA"></path>
                <path d="M67.281,28.961 C67.281,29.44147 67.67944,29.83991 68.15991,29.83991 C68.64038,29.83991 69.03882,29.44147 69.03882,28.961 L69.03882,27.1993 C69.03882,26.71883 68.64038,26.32039 68.15991,26.32039 C67.67944,26.32039 67.281,26.71883 67.281,27.1993 L67.281,28.961 Z" id="Fill-6" fill="#AAAAAA"></path>
                <path d="M67.281,34.398 C67.281,34.87847 67.67944,35.27691 68.15991,35.27691 C68.64038,35.27691 69.03882,34.87847 69.03882,34.398 L69.03882,32.6363 C69.03882,32.15583 68.64038,31.75739 68.15991,31.75739 C67.67944,31.75739 67.281,32.15583 67.281,32.6363 L67.281,34.398 Z" id="Fill-7" fill="#AAAAAA"></path>
                <path d="M61.121,24.48 C61.60147,24.48 61.99991,24.08156 61.99991,23.60109 L61.99991,21.83939 C61.99991,21.35892 61.60147,20.96048 61.121,20.96048 C60.64053,20.96048 60.24209,21.35892 60.24209,21.83939 L60.24209,23.60109 C60.23819,24.07765 60.64053,24.48 61.121,24.48 Z" id="Fill-8" fill="#AAAAAA"></path>
                <path d="M60.238,28.961 C60.238,29.44147 60.63644,29.83991 61.11691,29.83991 C61.59738,29.83991 61.99582,29.44147 61.99582,28.961 L61.99972,27.1993 C61.99972,26.71883 61.60128,26.32039 61.12081,26.32039 C60.64034,26.32039 60.2419,26.71883 60.2419,27.1993 L60.238,28.961 Z" id="Fill-9" fill="#AAAAAA"></path>
                <path d="M60.238,34.398 C60.238,34.87847 60.63644,35.27691 61.11691,35.27691 C61.59738,35.27691 61.99582,34.87847 61.99582,34.398 L61.99582,32.6363 C61.99582,32.15583 61.59738,31.75739 61.11691,31.75739 C60.63644,31.75739 60.238,32.15583 60.238,32.6363 L60.238,34.398 Z" id="Fill-10" fill="#AAAAAA"></path>
                <path d="M79.359,40.16 L78.96056,40.16 L78.96056,8.078 C78.96056,3.6796 75.35896,0.1561 71.03866,0.1561 C67.11676,0.1561 63.91756,2.9569 63.19886,6.6366 C59.51916,7.35535 56.71836,10.5585 56.71836,14.4764 C56.71836,15.35531 57.43711,16.078 58.31996,16.078 L71.03896,16.078 C71.91787,16.078 72.64056,15.35925 72.64056,14.4764 C72.64056,10.7147 69.99996,7.5975 66.48036,6.7147 C67.03895,4.7928 68.87876,3.3553 71.03896,3.3553 C73.67956,3.3553 75.75776,5.5155 75.75776,8.0741 L75.75776,40.1521 L5.60176,40.15991 C2.88296,40.15991 0.722863,42.32011 0.722863,45.03881 C0.722863,47.75751 2.88306,49.91771 5.60176,49.91771 L8.64086,49.91771 L18.64086,67.19871 L15.28146,72.96041 C14.80099,73.76119 15.1213,74.72211 15.84005,75.12061 C16.64083,75.60108 17.60175,75.28077 18.00025,74.56202 L21.35965,68.80032 L63.43765,68.80032 L66.79705,74.56202 C67.11736,75.04249 67.59783,75.3628 68.15645,75.3628 C68.39473,75.3628 68.71504,75.28468 68.95723,75.12452 C69.75801,74.64405 69.99633,73.68312 69.51582,72.96432 L66.23852,67.19872 L76.23852,49.83972 L79.27762,49.83972 C81.99642,49.83972 84.15652,47.67952 84.15652,44.96082 C84.23855,42.32022 82.07842,40.16002 79.35962,40.16002 L79.359,40.16 Z M69.121,12.801 L60.1601,12.801 C60.80072,10.9612 62.5585,9.6799 64.6406,9.6799 C66.7187,9.6799 68.4804,10.9611 69.1211,12.801 L69.121,12.801 Z M63.5194,65.602 L21.4414,65.602 L12.3203,49.922 L72.6403,49.922 L63.5194,65.602 Z M79.3594,46.719 L5.5194,46.719 C4.55846,46.719 3.8397,46.00025 3.8397,45.0393 C3.8397,44.07836 4.55845,43.3596 5.5194,43.3596 L79.28141,43.3596 C80.24235,43.3596 80.96111,44.07835 80.96111,45.0393 C80.96111,46.00024 80.23845,46.719 79.35951,46.719 L79.3594,46.719 Z" id="Fill-11" fill="#AAAAAA"></path>
            </g>
        </g>
    </g>
</svg>

<?xml version="1.0" encoding="utf-8"?>
<!-- Generator: Adobe Illustrator 16.0.4, SVG Export Plug-In . SVG Version: 6.00 Build 0)  -->
<!DOCTYPE svg PUBLIC "-//W3C//DTD SVG 1.1//EN" "http://www.w3.org/Graphics/SVG/1.1/DTD/svg11.dtd">
<svg version="1.1" id="Layer_1" xmlns="http://www.w3.org/2000/svg" xmlns:xlink="http://www.w3.org/1999/xlink" x="0px" y="0px"
	 width="85px" height="76px" viewBox="0 0 85 76" enable-background="new 0 0 85 76" xml:space="preserve">
<title>Page 1</title>
<desc>Created with Sketch.</desc>
<g id="Inspection">
	<g id="NewInspectionRoomSelection" transform="translate(-1129.000000, -46.000000)">
		<g id="Page-1" transform="translate(1129.000000, 46.000000)">
			<path id="Fill-1" fill="#35306C" d="M64.641,21.762c0.48,0,0.879-0.398,0.879-0.879v-1.762c0-0.48-0.398-0.879-0.879-0.879
				s-0.879,0.398-0.879,0.879v1.762C63.762,21.36,64.16,21.762,64.641,21.762z"/>
			<path id="Fill-2" fill="#35306C" d="M63.762,26.238c0,0.48,0.398,0.879,0.879,0.879s0.879-0.398,0.879-0.879v-1.762
				c0-0.48-0.398-0.879-0.879-0.879s-0.879,0.398-0.879,0.879V26.238z"/>
			<path id="Fill-3" fill="#35306C" d="M63.762,31.68c0,0.48,0.398,0.879,0.879,0.879s0.879-0.398,0.879-0.879v-1.762
				c0-0.48-0.398-0.879-0.879-0.879s-0.879,0.398-0.879,0.879V31.68z"/>
			<path id="Fill-4" fill="#35306C" d="M63.762,37.121c0,0.48,0.398,0.879,0.879,0.879s0.879-0.398,0.879-0.879v-1.762
				c0-0.48-0.398-0.879-0.879-0.879s-0.879,0.398-0.879,0.879V37.121z"/>
			<path id="Fill-5" fill="#35306C" d="M68.16,24.48c0.48,0,0.879-0.398,0.879-0.879v-1.762c0-0.48-0.398-0.879-0.879-0.879
				s-0.879,0.398-0.879,0.879v1.762C67.281,24.078,67.68,24.48,68.16,24.48z"/>
			<path id="Fill-6" fill="#35306C" d="M67.281,28.961c0,0.48,0.398,0.879,0.879,0.879s0.879-0.398,0.879-0.879v-1.762
				c0-0.48-0.398-0.879-0.879-0.879s-0.879,0.398-0.879,0.879V28.961z"/>
			<path id="Fill-7" fill="#35306C" d="M67.281,34.398c0,0.48,0.398,0.879,0.879,0.879s0.879-0.398,0.879-0.879v-1.762
				c0-0.48-0.398-0.879-0.879-0.879s-0.879,0.398-0.879,0.879V34.398z"/>
			<path id="Fill-8" fill="#35306C" d="M61.121,24.48c0.48,0,0.879-0.398,0.879-0.879v-1.762c0-0.48-0.398-0.879-0.879-0.879
				s-0.879,0.398-0.879,0.879v1.762C60.238,24.078,60.641,24.48,61.121,24.48z"/>
			<path id="Fill-9" fill="#35306C" d="M60.238,28.961c0,0.48,0.398,0.879,0.879,0.879s0.879-0.398,0.879-0.879L62,27.199
				c0-0.48-0.398-0.879-0.879-0.879s-0.879,0.398-0.879,0.879L60.238,28.961z"/>
			<path id="Fill-10" fill="#35306C" d="M60.238,34.398c0,0.48,0.398,0.879,0.879,0.879s0.879-0.398,0.879-0.879v-1.762
				c0-0.48-0.398-0.879-0.879-0.879s-0.879,0.398-0.879,0.879V34.398z"/>
			<path id="Fill-11" fill="#35306C" d="M79.359,40.16h-0.398V8.078c0-4.398-3.602-7.922-7.922-7.922
				c-3.922,0-7.121,2.801-7.84,6.48c-3.68,0.719-6.48,3.922-6.48,7.84c0,0.879,0.719,1.602,1.602,1.602h12.719
				c0.879,0,1.602-0.719,1.602-1.602c0-3.762-2.641-6.879-6.16-7.762c0.559-1.922,2.398-3.359,4.559-3.359
				c2.641,0,4.719,2.16,4.719,4.719v32.078L5.602,40.16c-2.719,0-4.879,2.16-4.879,4.879s2.16,4.879,4.879,4.879h3.039l10,17.281
				l-3.359,5.762c-0.48,0.801-0.16,1.762,0.559,2.16c0.801,0.48,1.762,0.16,2.16-0.559l3.36-5.762h42.078l3.359,5.762
				c0.32,0.48,0.801,0.801,1.359,0.801c0.238,0,0.559-0.078,0.801-0.238c0.801-0.48,1.039-1.441,0.559-2.16l-3.277-5.766l10-17.359
				h3.039c2.719,0,4.879-2.16,4.879-4.879C84.238,42.32,82.078,40.16,79.359,40.16L79.359,40.16z M69.121,12.801H60.16
				c0.641-1.839,2.398-3.121,4.48-3.121C66.719,9.68,68.48,10.961,69.121,12.801L69.121,12.801z M63.52,65.602H21.441l-9.121-15.68
				h60.32L63.52,65.602z M79.359,46.719H5.52c-0.961,0-1.68-0.719-1.68-1.68s0.719-1.68,1.68-1.68h73.762
				c0.961,0,1.68,0.719,1.68,1.68S80.238,46.719,79.359,46.719L79.359,46.719z"/>
		</g>
	</g>
</g>
</svg>
